public/placeholder/tes2.svg

<svg width="836" height="325" viewBox="0 0 836 325" fill="none" xmlns="http://www.w3.org/2000/svg">
<path d="M639.66 259.622C644.482 259.387 648.351 256.404 650.731 252.285C653.339 247.731 653.977 242.302 654.585 237.102C653.571 237.019 652.556 236.936 651.542 236.853C651.283 246.342 658.677 255.243 667.871 256.647C667.912 255.605 667.952 254.564 668.019 253.518C662.007 253.118 658.705 258.923 656.872 263.942C654.331 270.884 652.363 278.107 650.136 285.128C651.124 285.216 652.113 285.304 653.122 285.36C652.634 280.567 651.851 275.776 650.733 271.05C649.663 266.426 648.437 261.581 646.344 257.323C645.622 255.871 643.362 256.616 643.766 258.213C644.939 262.817 646.623 267.294 647.692 271.918C648.787 276.537 649.579 281.243 650.074 285.95C650.246 287.592 652.613 287.581 653.06 286.182C655.069 279.761 657.073 273.314 659.108 266.888C660.4 262.84 662.727 256.274 667.865 256.62C669.831 256.742 669.936 253.789 668.013 253.492C660.498 252.377 654.401 244.845 654.585 237.102C654.653 235.078 651.782 234.88 651.542 236.853C650.601 244.826 648.735 255.827 639.456 257.344C638.256 257.52 638.379 259.674 639.66 259.622Z" fill="white"/>
<path d="M626.515 283.498C627.343 287.139 626.528 290.79 624.604 293.818C622.927 296.49 619.815 299.384 616.458 299.446C614.524 299.484 613.957 302.054 615.866 302.886C622.587 305.863 624.09 314.908 625.079 321.369C625.351 323.217 628.01 323.29 628.513 321.655C630.788 314.339 635.333 308.15 641.456 303.863C642.625 303.05 641.856 301.27 640.778 300.78C635.065 298.223 630.977 292.138 630.745 285.81C630.702 283.527 627.262 283.214 627.331 285.492C627.535 293.531 632.484 300.958 639.748 304.194C639.524 303.175 639.295 302.129 639.071 301.11C632.484 305.738 627.597 312.581 625.144 320.434C626.295 320.519 627.452 320.63 628.577 320.72C627.356 312.711 625.047 303.067 616.913 299.553C616.864 300.681 616.821 301.835 616.772 302.963C620.98 301.618 624.514 299.537 626.887 295.612C629.1 291.942 629.844 287.354 628.662 283.083C628.272 281.677 626.197 282.05 626.515 283.498Z" fill="white"/>
<path d="M73.7025 258.964C74.2939 261.567 73.7112 264.177 72.3366 266.34C71.1375 268.25 68.9131 270.319 66.5136 270.363C65.132 270.391 64.7262 272.227 66.0906 272.822C70.8949 274.95 71.9692 281.414 72.676 286.032C72.87 287.353 74.7703 287.405 75.1302 286.237C76.7561 281.008 80.0046 276.584 84.3808 273.52C85.2167 272.939 84.6672 271.667 83.8963 271.317C79.8132 269.489 76.8911 265.14 76.7256 260.617C76.6945 258.985 74.236 258.761 74.2857 260.39C74.4309 266.135 77.9687 271.444 83.1606 273.756C83.0005 273.028 82.8362 272.281 82.6761 271.553C77.968 274.86 74.4753 279.751 72.7219 285.364C73.5447 285.425 74.3717 285.504 75.1761 285.569C74.3031 279.844 72.6529 272.952 66.8389 270.44C66.8041 271.246 66.7734 272.071 66.7386 272.877C69.746 271.916 72.2716 270.428 73.9677 267.623C75.5497 265 76.0816 261.721 75.2369 258.668C74.9582 257.663 73.475 257.93 73.7025 258.964Z" fill="white"/>
<path d="M62.225 60.9524C63.4864 69.1185 59.1712 77.0498 51.9243 80.0675C50.4549 80.6802 51.5107 83.0104 52.9733 82.7235C54.3993 82.4681 55.5791 84.5848 56.1978 85.625C57.4075 87.5959 58.4865 89.6661 59.4027 91.7966C61.2397 95.9869 62.4577 100.457 63.1066 104.965C63.3199 106.514 65.9174 106.316 65.7671 104.752C65.1156 96.8872 68.0313 89.2284 73.6988 84.1851C74.5338 83.439 73.8477 82.0436 72.818 81.9308C70.4953 81.7189 68.2879 80.5543 66.601 78.8079C64.8233 76.9664 64.0332 74.8072 63.4403 72.3715C63.1406 71.0965 61.2971 71.2849 61.2858 72.5613C61.2154 75.5419 62.9175 78.5818 64.9775 80.6601C67.1282 82.8335 69.8869 84.243 72.854 84.5397C72.5552 83.7972 72.2775 83.0498 71.9732 82.2854C65.8296 87.6456 62.4276 96.11 63.1023 104.595C63.998 104.53 64.8881 104.443 65.7628 104.383C64.9989 99.0677 63.4135 93.8472 61.115 88.9746C60.0338 86.7196 58.8519 84.4181 57.3256 82.4267C56.0671 80.7911 54.318 79.5915 52.2764 79.9641C52.6349 80.8551 52.9668 81.7291 53.3254 82.6201C61.3386 79.2889 66.1579 69.3899 64.0607 60.5573C63.7609 59.2823 62.0259 59.7239 62.225 60.9524Z" fill="white"/>
<path d="M427.03 120.469C427.536 108.157 431.756 96.3532 438.884 86.778C442.454 82.0122 446.554 77.6685 451.352 74.1716C453.724 72.4069 456.244 70.8378 458.84 69.5302C461.156 68.3448 464.044 66.9587 466.786 67.5394C469.998 68.1823 471.207 71.8539 472.077 74.6762C472.948 77.4985 473.663 80.4092 473.99 83.3774C474.624 88.9427 474.193 95.0289 470.797 99.4658C469.622 101.003 467.813 102.993 466.075 101.062C464.673 99.5104 464.114 96.9807 464.248 94.9702C464.567 88.9612 468.528 83.5264 472.357 79.4904C477.566 74.0029 483.831 69.5015 490.047 65.2953C497.094 60.537 504.432 56.3117 512.062 52.6194C515.26 51.0563 512.24 46.1309 509.071 47.6392C500.923 51.5646 493.121 56.0554 485.703 61.2423C479.258 65.745 472.68 70.5654 467.418 76.4903C462.969 81.4918 458.595 88.4476 458.868 95.7083C459.063 101.157 462.809 108.567 469.075 107.309C475.771 105.982 478.704 96.8746 479.261 90.7547C479.878 83.9135 478.409 76.2683 475.648 69.9104C468.196 52.9165 448.333 69.2462 441.043 77.0315C430.278 88.5225 423.825 104.263 423.357 120.561C423.341 122.822 426.956 122.839 427.03 120.469Z" fill="white"/>
<path d="M77.5629 224.451C69.3311 221.566 60.2898 221.294 51.8154 223.547C47.5906 224.683 43.4796 226.284 39.709 228.573C37.8215 229.695 36.0169 230.966 34.3603 232.357C32.87 233.593 31.0718 235.159 30.6089 237.142C30.0422 239.455 32.0785 241.224 33.6619 242.544C35.2453 243.864 36.9343 245.104 38.7809 246.099C42.2361 247.979 46.3611 249.284 50.3165 248.178C51.6866 247.796 53.5489 247.109 52.8169 245.443C52.2304 244.101 50.7432 243.065 49.3832 242.628C45.3435 241.268 40.5595 242.491 36.7338 243.991C31.531 246.033 26.6504 249.038 21.9784 252.087C16.6885 255.547 11.6585 259.341 6.88857 263.469C4.87901 265.196 2.57749 261.89 4.54214 260.169C9.62454 255.755 14.9714 251.721 20.6567 248.125C25.5937 245 30.7799 241.87 36.2857 239.908C40.9356 238.246 46.8443 237.146 51.5229 239.229C55.0369 240.785 58.7447 245.227 55.9914 249.081C53.0603 253.206 46.1837 252.78 41.9979 251.549C37.3206 250.17 32.7577 247.189 29.4371 243.68C20.5831 234.256 37.4076 225.267 44.7578 222.437C55.608 218.257 67.919 218.069 78.7539 222.022C80.2417 222.604 79.1406 225.022 77.5629 224.451Z" fill="white"/>
<path d="M583.917 280.892C572.76 279.154 561.812 277.273 550.451 275.744C539.164 274.244 527.744 272.915 516.192 271.79C492.868 269.521 469.153 267.931 445.052 267.084C396.919 265.353 347.725 266.241 298.854 269.831C285.408 270.816 271.902 272.002 258.555 273.408C251.702 274.138 244.851 274.901 238.005 275.729C230.941 276.57 223.792 277.219 216.893 278.345C210.066 279.466 211.72 284.711 218.931 283.895C230.828 282.541 242.471 280.645 254.37 279.324C266.267 277.97 278.176 276.812 290.167 275.781C314.079 273.755 338.103 272.345 362.171 271.588C410.165 270.115 457.899 271.311 504.264 274.883C517.115 275.866 529.761 277.057 542.416 278.379C555.584 279.769 568.822 281.123 581.518 283.065C584.526 283.511 586.999 281.367 583.917 280.892Z" fill="white"/>
<path d="M543.415 67.7615C543.843 62.8894 543.865 57.6842 544.986 52.9038C546.084 48.1683 546.263 42.9911 546.725 38.1087C547.634 28.1952 548.565 18.2367 549.475 8.32311C548.023 8.16044 546.605 7.98748 545.154 7.82482C547.864 24.3783 553.465 40.3433 561.615 55.1377C562.75 54.1367 563.886 53.1357 565.021 52.1347C554.027 44.2209 543.482 35.6714 533.41 26.5554C533.171 27.9288 532.899 29.3126 532.66 30.686C544.455 28.0318 556.391 26.0218 568.46 24.7354C567.807 23.3321 567.12 21.9392 566.466 20.5359C561.676 26.8719 556.885 33.208 552.094 39.544C547.392 45.8145 542.107 51.8828 538.092 58.6672C536.793 60.8272 540.064 62.9116 541.67 61.2299C544.365 58.4087 546.598 55.1953 548.966 52.0549C551.334 48.9145 553.68 45.8191 556.048 42.6787C560.762 36.4428 565.476 30.207 570.178 23.9365C571.329 22.4337 570.377 19.4792 568.184 19.737C555.704 21.1125 543.323 23.2218 531.128 25.9996C529.349 26.3969 529.059 28.9331 530.378 30.1303C540.485 39.236 551.051 47.7406 562.079 55.6441C564.25 57.1894 566.877 55.1537 565.485 52.6411C557.713 38.6472 552.355 23.4095 549.579 7.75575C549.386 6.63047 548.717 5.72902 547.533 5.59815C546.54 5.48503 545.333 6.16396 545.258 7.25745C544.472 17.2094 543.73 27.1856 542.944 37.1375C542.752 39.5286 542.626 41.8991 542.467 44.2799C542.308 46.6607 541.949 49.1033 542.058 51.5158C542.237 56.7735 541.624 61.9704 541.2 67.1851C541.041 68.6868 543.301 69.2875 543.415 67.7615Z" fill="white"/>
<path d="M811.121 139.674C813.346 137.73 815.567 135.766 817.76 133.77C819.939 131.798 822.3 129.917 824.324 127.806C825.674 126.404 823.704 124.543 822.23 125.698C819.934 127.522 817.845 129.69 815.69 131.676C813.521 133.686 811.352 135.696 809.211 137.738C807.934 138.962 809.801 140.809 811.121 139.674Z" fill="white"/>
<path d="M816.217 151.904C819.398 151.497 822.583 151.109 825.783 150.894C827.393 150.785 829.014 150.733 830.62 150.703C832.09 150.681 833.863 150.991 835.248 150.456C836.196 150.087 835.861 148.818 835.105 148.48C834.329 148.145 833.46 148.222 832.637 148.232C831.892 148.244 831.167 148.253 830.426 148.285C828.786 148.341 827.135 148.439 825.495 148.594C822.25 148.876 819.02 149.332 815.851 150.091C814.665 150.35 815.027 152.046 816.217 151.904Z" fill="white"/>
</svg>

<svg width="836" height="325" fill="none" xmlns="http://www.w3.org/2000/svg"><path d="M639.66 259.622c4.822-.235 8.691-3.218 11.071-7.337 2.608-4.554 3.246-9.983 3.854-15.183l-3.043-.249c-.259 9.489 7.135 18.39 16.329 19.794.041-1.042.081-2.083.148-3.129-6.012-.4-9.314 5.405-11.147 10.424-2.541 6.942-4.509 14.165-6.736 21.186.988.088 1.977.176 2.986.232a111.057 111.057 0 0 0-2.389-14.31c-1.07-4.624-2.296-9.469-4.389-13.727-.722-1.452-2.982-.707-2.578.89 1.173 4.604 2.857 9.081 3.926 13.705a111.49 111.49 0 0 1 2.382 14.032c.172 1.642 2.539 1.631 2.986.232 2.009-6.421 4.013-12.868 6.048-19.294 1.292-4.048 3.619-10.614 8.757-10.268 1.966.122 2.071-2.831.148-3.128-7.515-1.115-13.612-8.647-13.428-16.39.068-2.024-2.803-2.222-3.043-.249-.941 7.973-2.807 18.974-12.086 20.491-1.2.176-1.077 2.33.204 2.278zm-13.145 23.876c.828 3.641.013 7.292-1.911 10.32-1.677 2.672-4.789 5.566-8.146 5.628-1.934.038-2.501 2.608-.592 3.44 6.721 2.977 8.224 12.022 9.213 18.483.272 1.848 2.931 1.921 3.434.286 2.275-7.316 6.82-13.505 12.943-17.792 1.169-.813.4-2.593-.678-3.083-5.713-2.557-9.801-8.642-10.033-14.97-.043-2.283-3.483-2.596-3.414-.318.204 8.039 5.153 15.466 12.417 18.702l-.677-3.084c-6.587 4.628-11.474 11.471-13.927 19.324 1.151.085 2.308.196 3.433.286-1.221-8.009-3.53-17.653-11.664-21.167-.049 1.128-.092 2.282-.141 3.41 4.208-1.345 7.742-3.426 10.115-7.351 2.213-3.67 2.957-8.258 1.775-12.529-.39-1.406-2.465-1.033-2.147.415zM73.702 258.964c.592 2.603.01 5.213-1.365 7.376-1.2 1.91-3.424 3.979-5.823 4.023-1.382.028-1.788 1.864-.423 2.459 4.804 2.128 5.878 8.592 6.585 13.21.194 1.321 2.094 1.373 2.454.205 1.626-5.229 4.875-9.653 9.25-12.717.837-.581.287-1.853-.484-2.203-4.083-1.828-7.005-6.177-7.17-10.7-.031-1.632-2.49-1.856-2.44-.227.145 5.745 3.683 11.054 8.875 13.366l-.485-2.203c-4.708 3.307-8.2 8.198-9.954 13.811.823.061 1.65.14 2.454.205-.873-5.725-2.523-12.617-8.337-15.129-.035.806-.066 1.631-.1 2.437 3.007-.961 5.533-2.449 7.229-5.254 1.582-2.623 2.114-5.902 1.269-8.955-.279-1.005-1.762-.738-1.534.296zM62.225 60.952c1.261 8.166-3.054 16.098-10.3 19.115-1.47.613-.414 2.943 1.048 2.657 1.426-.256 2.606 1.86 3.225 2.901a48.322 48.322 0 0 1 3.205 6.172c1.837 4.19 3.055 8.66 3.704 13.168.213 1.549 2.81 1.351 2.66-.213-.651-7.865 2.264-15.524 7.932-20.567.835-.746.149-2.141-.881-2.254-2.323-.212-4.53-1.377-6.217-3.123-1.778-1.842-2.568-4-3.16-6.437-.3-1.274-2.144-1.086-2.155.19-.07 2.98 1.631 6.02 3.692 8.1 2.15 2.172 4.909 3.582 7.876 3.879-.299-.743-.576-1.49-.88-2.255-6.144 5.36-9.546 13.825-8.872 22.31.896-.065 1.786-.152 2.66-.212a54.361 54.361 0 0 0-4.647-15.408c-1.081-2.255-2.263-4.557-3.79-6.548-1.258-1.636-3.007-2.836-5.049-2.463.359.891.69 1.765 1.05 2.656 8.013-3.331 12.832-13.23 10.735-22.063-.3-1.275-2.035-.833-1.836.395zM427.03 120.47c.506-12.312 4.726-24.116 11.854-33.691 3.57-4.766 7.67-9.11 12.468-12.606a51.169 51.169 0 0 1 7.488-4.642c2.316-1.185 5.204-2.571 7.946-1.99 3.212.642 4.421 4.314 5.291 7.136.871 2.823 1.586 5.733 1.913 8.701.634 5.566.203 11.652-3.193 16.089-1.175 1.537-2.984 3.527-4.722 1.596-1.402-1.552-1.961-4.081-1.827-6.092.319-6.009 4.28-11.444 8.109-15.48 5.209-5.487 11.474-9.989 17.69-14.195a177.317 177.317 0 0 1 22.015-12.676c3.198-1.563.178-6.488-2.991-4.98-8.148 3.926-15.95 8.416-23.368 13.603-6.445 4.503-13.023 9.323-18.285 15.248-4.449 5.002-8.823 11.958-8.55 19.218.195 5.449 3.941 12.859 10.207 11.601 6.696-1.327 9.629-10.434 10.186-16.554.617-6.841-.852-14.487-3.613-20.845-7.452-16.993-27.315-.664-34.605 7.121-10.765 11.491-17.218 27.232-17.686 43.53-.016 2.261 3.599 2.278 3.673-.092zM77.563 224.451c-8.232-2.885-17.273-3.157-25.748-.904-4.224 1.136-8.335 2.737-12.106 5.026a40.606 40.606 0 0 0-5.349 3.784c-1.49 1.236-3.288 2.802-3.751 4.785-.567 2.313 1.47 4.082 3.053 5.402 1.583 1.32 3.272 2.56 5.119 3.555 3.455 1.88 7.58 3.185 11.535 2.079 1.37-.382 3.233-1.069 2.5-2.735-.586-1.342-2.073-2.378-3.433-2.815-4.04-1.36-8.824-.137-12.65 1.363-5.202 2.042-10.083 5.047-14.755 8.096a140.85 140.85 0 0 0-15.09 11.382c-2.009 1.727-4.31-1.579-2.346-3.3 5.083-4.414 10.43-8.448 16.115-12.044 4.937-3.125 10.123-6.255 15.629-8.217 4.65-1.662 10.558-2.762 15.237-.679 3.514 1.556 7.222 5.998 4.468 9.852-2.93 4.125-9.807 3.699-13.993 2.468-4.677-1.379-9.24-4.36-12.56-7.869-8.855-9.424 7.97-18.413 15.32-21.243 10.85-4.18 23.161-4.368 33.996-.415 1.488.582.387 3-1.191 2.429zm506.354 56.441c-11.157-1.738-22.105-3.619-33.466-5.148a983.988 983.988 0 0 0-34.259-3.954 1152.689 1152.689 0 0 0-71.14-4.706c-48.133-1.731-97.327-.843-146.198 2.747a1274.538 1274.538 0 0 0-40.299 3.577c-6.853.73-13.704 1.493-20.55 2.321-7.064.841-14.213 1.49-21.112 2.616-6.827 1.121-5.173 6.366 2.038 5.55 11.897-1.354 23.54-3.25 35.439-4.571 11.897-1.354 23.806-2.512 35.797-3.543a1359.296 1359.296 0 0 1 72.004-4.193 1326.044 1326.044 0 0 1 142.093 3.295c12.851.983 25.497 2.174 38.152 3.496 13.168 1.39 26.406 2.744 39.102 4.686 3.008.446 5.481-1.698 2.399-2.173zm-40.502-213.13c.428-4.873.45-10.078 1.571-14.858 1.098-4.736 1.277-9.913 1.739-14.795.909-9.914 1.84-19.872 2.75-29.786-1.452-.163-2.87-.336-4.321-.498 2.71 16.553 8.311 32.518 16.461 47.313l3.406-3.003a364.215 364.215 0 0 1-31.611-25.58c-.239 1.374-.511 2.758-.75 4.131 11.795-2.654 23.731-4.664 35.8-5.95-.653-1.404-1.34-2.797-1.994-4.2l-14.372 19.008c-4.702 6.27-9.987 12.339-14.002 19.123-1.299 2.16 1.972 4.245 3.578 2.563 2.695-2.821 4.928-6.035 7.296-9.175 2.368-3.14 4.714-6.236 7.082-9.376 4.714-6.236 9.428-12.472 14.13-18.743 1.151-1.502.199-4.457-1.994-4.199A329.448 329.448 0 0 0 531.128 26c-1.779.397-2.069 2.933-.75 4.13a364.86 364.86 0 0 0 31.701 25.514c2.171 1.545 4.798-.49 3.406-3.003-7.772-13.994-13.13-29.231-15.906-44.885-.193-1.126-.862-2.027-2.046-2.158-.993-.113-2.2.566-2.275 1.66-.786 9.951-1.528 19.928-2.314 29.88-.192 2.39-.318 4.761-.477 7.142-.159 2.38-.518 4.823-.409 7.236.179 5.258-.434 10.454-.858 15.67-.159 1.5 2.101 2.101 2.215.575zm267.706 71.912a437.637 437.637 0 0 0 6.639-5.904c2.179-1.972 4.54-3.853 6.564-5.964 1.35-1.402-.62-3.263-2.094-2.108-2.296 1.824-4.385 3.992-6.54 5.978a617.505 617.505 0 0 0-6.479 6.062c-1.277 1.224.59 3.071 1.91 1.936zm5.096 12.23c3.181-.407 6.366-.795 9.566-1.01a99.164 99.164 0 0 1 4.837-.191c1.47-.022 3.243.288 4.628-.247.948-.369.613-1.638-.143-1.976-.776-.335-1.645-.258-2.468-.248-.745.012-1.47.021-2.211.053-1.64.056-3.291.154-4.931.309-3.245.282-6.475.738-9.644 1.497-1.186.259-.824 1.955.366 1.813z" fill="#fff"/></svg>
